packages/kaspersky-hexa-ui-icons/src/iconsSVGs/64x42/FlagBf.svg

<svg xmlns="http://www.w3.org/2000/svg" width="64" height="42" fill="none" viewBox="0 0 64 42"><g clip-path="url(#a)"><rect width="64" height="42" fill="#fff" rx="5"/><path fill="#fff" fill-rule="evenodd" d="M0 14h64V0H0z" clip-rule="evenodd"/><path fill="#00b051" fill-rule="evenodd" d="M0 42h64V22.4H0z" clip-rule="evenodd"/><path fill="#fa494b" fill-rule="evenodd" d="M-1.242 22.4h66.7786V0H-1.2419z" clip-rule="evenodd"/><path fill="#fdd216" fill-rule="evenodd" d="m32.0001 25.676-4.9374 3.5197 1.8217-5.7834-4.8732-3.608 6.0633-.0546L32.0001 14l1.9256 5.7497 6.0633.0546-4.8732 3.608 1.8217 5.7834z" clip-rule="evenodd"/></g><defs><clipPath id="a"><rect width="64" height="42" fill="#fff" rx="5"/></clipPath></defs></svg>

<svg width="64" height="42" viewBox="0 0 64 42" fill="none" xmlns="http://www.w3.org/2000/svg">
<g clip-path="url(#clip0_37941_2208)">
<rect width="64" height="42" rx="5" fill="white"/>
<path fill-rule="evenodd" clip-rule="evenodd" d="M0 14H64V0H0V14Z" fill="white"/>
<path fill-rule="evenodd" clip-rule="evenodd" d="M0 42H64V22.4H0V42Z" fill="#00B051"/>
<path fill-rule="evenodd" clip-rule="evenodd" d="M-1.24194 22.4H65.5366V0H-1.24194V22.4Z" fill="#FA494B"/>
<path fill-rule="evenodd" clip-rule="evenodd" d="M32.0001 25.676L27.0627 29.1957L28.8844 23.4123L24.0112 19.8043L30.0745 19.7497L32.0001 14L33.9257 19.7497L39.989 19.8043L35.1158 23.4123L36.9375 29.1957L32.0001 25.676Z" fill="#FDD216"/>
</g>
<defs>
<clipPath id="clip0_37941_2208">
<rect width="64" height="42" rx="5" fill="white"/>
</clipPath>
</defs>
</svg>
